X:1
T: Face Me Up
C:
R:Reel
Q: 232
K:F
M:4/4
L:1/8
|:c2 f2 d2 f2|cd cB AG F2|AB cd ef ga|g^f ga g4|
c2 f2 d2 f2|cd cB AG F2|AB cd ef ga|gf ga f4|
ba gb ag fa|gf eg f2 a2|g^f ga g=f ed|c=B cd c_B AB|
c2 f2 d2 f2|cd cB AB c2|de fd ef ge|d2 a2 d2 z2:|
